X: 41907
T: Wagtail, The
R: reel
M: 4/4
K: Dmajor
AFdF AFDF|ABAF G(E{G}E)F|AFdF AFDF|GBAG FDFG|
[A2A2] AB AFDF|ABAF G~E3|DFAF GABd|AFGE FDDF|
AFdF AFDF|AFdF G~E3|AFdF AFDF|GBAG FD E/F/G|
A^GAB AFDF|A/B/A FA G(E{G}E)F|DFAF GA B/c/d|AFGE DEFD||
|:~E3d cAAB|cAdB cAGA|~E3d cAAB|c/B/A GE FDDF|
~E3d cAAB|c/B/A dA cdgd|~f3d efed|1 c/B/A GE DEFD:|2 cAGE FDD2||

